assets/Bouquet/Flat/bouquet_flat.svg

<svg width="32" height="32" viewBox="0 0 32 32" fill="none" xmlns="http://www.w3.org/2000/svg">
<path d="M21.5152 4.24517C20.4652 5.31517 20.4652 7.09517 21.5652 8.19517L21.6766 8.30657C21.6067 8.39418 21.5418 8.48604 21.4823 8.58171C20.7589 8.15682 19.6965 8.28075 18.9252 9.06522L8.84518 19.3652C8.12473 20.1041 7.99579 21.0782 8.3463 21.7783C8.25975 21.8333 8.17639 21.8929 8.09658 21.9566L7.98519 21.8452C6.88519 20.7452 5.10519 20.7452 4.03519 21.7952L2.71519 23.1052C2.64519 23.1752 2.65519 23.2752 2.72519 23.3452C3.98334 24.4756 5.92747 24.4756 7.16156 23.3071C7.08278 23.555 7.0388 23.8163 7.03519 24.0852V25.9452C7.03519 26.0352 7.11519 26.1152 7.20519 26.1052C8.92519 26.0152 10.3152 24.5952 10.3152 22.8452V22.7863L23.3052 25.1352C23.3752 25.1552 23.4352 25.2052 23.4452 25.2752L24.2552 29.4152C24.3752 30.0052 25.1152 30.1552 25.5952 29.6752L29.7152 25.5552C30.1952 25.0752 30.0452 24.3352 29.4552 24.2152L26.8952 23.7152L25.2352 23.3952C25.1652 23.3852 25.1052 23.3352 25.0952 23.2652L22.4254 10.5252H22.5652C24.3152 10.5252 25.7352 9.13518 25.8252 7.41518C25.8352 7.32518 25.7552 7.24518 25.6652 7.24518H23.8052C23.5363 7.24879 23.2749 7.29278 23.0271 7.37156C24.1955 6.13748 24.1956 4.19333 23.0652 2.93517C22.9952 2.86517 22.8952 2.86517 22.8252 2.92517L21.5152 4.24517Z" fill="#44911B"/>
<path d="M23.4141 25.2031L23.6406 26.2851L26.3226 23.6039L25.1873 23.386L23.4141 25.2031Z" fill="#00A6ED"/>
<path d="M17.2252 12.0352L21.8652 10.1052L20.7152 7.34518C19.9952 5.61518 18.6152 4.24518 16.8752 3.54518C16.5552 3.41518 16.1952 3.57518 16.0652 3.88518C15.3552 5.60518 15.3552 7.52518 16.0652 9.24518L17.2252 12.0352Z" fill="#F70A8D"/>
<path d="M12.0352 16.9852L10.1052 21.6252L7.34518 20.4752C5.61518 19.7552 4.24518 18.3752 3.54518 16.6352C3.41518 16.3152 3.57518 15.9552 3.88518 15.8252C5.60518 15.1152 7.52518 15.1152 9.24518 15.8252L12.0352 16.9852Z" fill="#F70A8D"/>
<path d="M20.1252 2.02519C20.3352 1.93519 20.6052 2.09519 20.7152 2.36519L21.9652 5.36519C22.3052 6.19519 22.6352 7.47519 22.6252 8.26519C22.6352 10.2152 21.5652 11.4952 19.9852 12.1552C18.2752 12.8552 16.4452 12.5652 15.0452 10.9252C14.7152 10.5352 14.2352 9.65519 13.9852 9.16519C13.8952 8.99519 13.8152 8.81519 13.7352 8.63519L13.7452 8.63519L12.5552 5.76519C12.4452 5.48519 12.5252 5.18519 12.7452 5.09519C14.2552 4.46519 16.4652 6.13519 17.9352 8.06519C18.1952 8.40519 18.6152 8.23519 18.5552 7.81519C18.2252 5.40519 18.6052 2.64519 20.1252 2.02519Z" fill="#FF6DC6"/>
<path d="M2.02519 19.8852C1.93519 20.0952 2.09519 20.3652 2.36519 20.4752L5.36519 21.7252C6.19519 22.0652 7.47519 22.3952 8.26519 22.3852C10.2152 22.3952 11.4952 21.3252 12.1552 19.7452C12.8552 18.0352 12.5652 16.2052 10.9252 14.8052C10.5352 14.4752 9.65519 13.9952 9.16519 13.7452C8.99519 13.6552 8.81519 13.5752 8.63519 13.4952L8.63519 13.5052L5.76519 12.3152C5.48519 12.2052 5.18519 12.2852 5.09519 12.5052C4.46519 14.0152 6.13519 16.2252 8.06519 17.6952C8.40519 17.9552 8.23519 18.3752 7.81519 18.3152C5.40519 17.9852 2.64519 18.3652 2.02519 19.8852Z" fill="#FF6DC6"/>
<path d="M8.34518 16.0152C7.71518 15.0152 8.07518 13.6952 9.12518 13.1652L10.0752 12.6852L9.29518 12.0352C8.40518 11.2852 8.33518 9.94522 9.13518 9.10522C9.95518 8.25522 11.3252 8.29522 12.0952 9.18522L12.7252 9.91522L13.1652 8.96522C13.6652 7.89522 14.9652 7.48522 15.9852 8.07522C16.9852 8.65522 17.2852 9.97522 16.6352 10.9352L16.1252 11.6852L17.2852 11.7852C18.4552 11.8852 19.2952 12.9652 19.0852 14.1252C18.8852 15.2652 17.7452 15.9952 16.6252 15.7152L15.7852 15.5352L16.0452 16.3052C16.3752 17.4152 15.6852 18.5752 14.5552 18.8252C13.4052 19.0752 12.2852 18.2852 12.1452 17.1152L11.9952 15.9752L11.2152 16.5452C10.2852 17.2452 8.96518 16.9952 8.34518 16.0152Z" fill="#FFF478"/>
<path d="M13.0752 14.8152C14.119 14.8152 14.9652 13.969 14.9652 12.9252C14.9652 11.8813 14.119 11.0352 13.0752 11.0352C12.0314 11.0352 11.1852 11.8813 11.1852 12.9252C11.1852 13.969 12.0314 14.8152 13.0752 14.8152Z" fill="#FFB02E"/>
</svg>

<svg xmlns="http://www.w3.org/2000/svg" width="32" height="32" fill="none"><path fill="#44911B" d="M21.515 4.245c-1.05 1.07-1.05 2.85.05 3.95l.112.112a2.88 2.88 0 0 0-.195.275c-.723-.425-1.785-.301-2.557.483l-10.08 10.3c-.72.74-.85 1.713-.499 2.413-.086.055-.17.115-.25.179l-.11-.112c-1.1-1.1-2.88-1.1-3.95-.05l-1.32 1.31c-.07.07-.06.17.01.24 1.257 1.13 3.201 1.13 4.436-.038-.08.248-.123.51-.127.778v1.86c0 .09.08.17.17.16 1.72-.09 3.11-1.51 3.11-3.26v-.059l12.99 2.35c.07.02.13.07.14.14l.81 4.14c.12.59.86.74 1.34.26l4.12-4.12c.48-.48.33-1.22-.26-1.34l-2.56-.5-1.66-.32c-.07-.01-.13-.06-.14-.13l-2.67-12.74h.14c1.75 0 3.17-1.39 3.26-3.11.01-.09-.07-.17-.16-.17h-1.86c-.269.003-.53.047-.778.126 1.168-1.235 1.169-3.179.038-4.437a.172.172 0 0 0-.24-.01l-1.31 1.32Z"/><path fill="#00A6ED" d="m23.414 25.203.227 1.082 2.682-2.681-1.136-.218-1.773 1.817Z"/><path fill="#F70A8D" d="m17.225 12.035 4.64-1.93-1.15-2.76c-.72-1.73-2.1-3.1-3.84-3.8a.627.627 0 0 0-.81.34 7.01 7.01 0 0 0 0 5.36l1.16 2.79ZM12.035 16.985l-1.93 4.64-2.76-1.15c-1.73-.72-3.1-2.1-3.8-3.84-.13-.32.03-.68.34-.81a7.01 7.01 0 0 1 5.36 0l2.79 1.16Z"/><path fill="#FF6DC6" d="M20.125 2.025c.21-.09.48.07.59.34l1.25 3c.34.83.67 2.11.66 2.9.01 1.95-1.06 3.23-2.64 3.89-1.71.7-3.54.41-4.94-1.23-.33-.39-.81-1.27-1.06-1.76-.09-.17-.17-.35-.25-.53h.01l-1.19-2.87c-.11-.28-.03-.58.19-.67 1.51-.63 3.72 1.04 5.19 2.97.26.34.68.17.62-.25-.33-2.41.05-5.17 1.57-5.79ZM2.025 19.885c-.09.21.07.48.34.59l3 1.25c.83.34 2.11.67 2.9.66 1.95.01 3.23-1.06 3.89-2.64.7-1.71.41-3.54-1.23-4.94-.39-.33-1.27-.81-1.76-1.06-.17-.09-.35-.17-.53-.25v.01l-2.87-1.19c-.28-.11-.58-.03-.67.19-.63 1.51 1.04 3.72 2.97 5.19.34.26.17.68-.25.62-2.41-.33-5.17.05-5.79 1.57Z"/><path fill="#FFF478" d="M8.345 16.015c-.63-1-.27-2.32.78-2.85l.95-.48-.78-.65c-.89-.75-.96-2.09-.16-2.93.82-.85 2.19-.81 2.96.08l.63.73.44-.95c.5-1.07 1.8-1.48 2.82-.89 1 .58 1.3 1.9.65 2.86l-.51.75 1.16.1c1.17.1 2.01 1.18 1.8 2.34a2.008 2.008 0 0 1-2.46 1.59l-.84-.18.26.77c.33 1.11-.36 2.27-1.49 2.52-1.15.25-2.27-.54-2.41-1.71l-.15-1.14-.78.57c-.93.7-2.25.45-2.87-.53Z"/><path fill="#FFB02E" d="M13.075 14.815a1.89 1.89 0 1 0 0-3.78 1.89 1.89 0 0 0 0 3.78Z"/></svg>
